X:16014
T:Prince William
R:March
C:Trad. 1731
O:England
Z:Paul Hardy's Session Tunebook 2015 (see www.paulhardy.net). Creative Commons cc by-nc-sa licenced.
M:2/2
L:1/8
Q:1/2=80
K:G
D2|"G"G4 B2AG|"D7"A6 c2|"G"B4 "D"A4|"G"GFGA G2A2|B2G2 D2B2|"D"A6 G2|F2d2 "A7"E2^c2|"D"d6:|
|:Bc|"G"d4 "C"e3d|"D7"c2B2 A2d2|"C"c2B2 A2G2|"D"F2A2 D4|"G"G2FG "D7"A2GA|"G"B2AB "C"c2dc|"G"B2AG "D7"D2F2|"G"G6:|

